X:12502
T:The Home Ruler
R:Hornpipe
B:Tuneworks Tunebook (https://www.tuneworks.co.uk/)
G:Tuneworks
Z:Jon Warbrick <jon.warbrick@googlemail.com>
M:4/4
L:1/8
K:D
|: AF | "D"D2 FA DAFA | dfed "G"B2 dB | "D"A2 AB AFDE | "G"(3FED ED "A"B,DA,B, | 
"D"D2 FA DAFA | dfed "G"B2 dB | "D"A2 AB "A"AFDE | "D"F2 D2 D2 :|
|: AB | "D"d2 dc defg | afbf afed | "G"efed BA (3Bcd | "A"fded BdAB | 
"D"d2 dc defg | afbf afed | "G"efed BA (3dcB | "A"AFEF "D"D2 :|